#src/img/admin/edit-filter.svg

<svg width="24" height="24" viewBox="0 0 24 24" fill="none" xmlns="http://www.w3.org/2000/svg">
<path d="M19.5 4.5H3V6.8775L8.5575 12.4425L9 12.8775V19.5H12V18H13.5V19.5C13.5 19.8978 13.342 20.2794 13.0607 20.5607C12.7794 20.842 12.3978 21 12 21H9C8.60218 21 8.22065 20.842 7.93934 20.5607C7.65804 20.2794 7.5 19.8978 7.5 19.5V13.5L1.9425 7.9425C1.80212 7.80296 1.69075 7.63701 1.61481 7.45423C1.53886 7.27144 1.49984 7.07543 1.5 6.8775V4.5C1.5 4.10218 1.65804 3.72064 1.93934 3.43934C2.22064 3.15804 2.60218 3 3 3H19.5V4.5Z" fill="#CA583E"/>
<path d="M22.2825 8.46745L20.0325 6.21745C19.9628 6.14716 19.8798 6.09136 19.7884 6.05329C19.697 6.01521 19.599 5.99561 19.5 5.99561C19.401 5.99561 19.303 6.01521 19.2116 6.05329C19.1202 6.09136 19.0372 6.14716 18.9675 6.21745L12 13.1925V16.5H15.3075L22.2825 9.53245C22.3528 9.46273 22.4086 9.37978 22.4467 9.28839C22.4847 9.19699 22.5043 9.09896 22.5043 8.99995C22.5043 8.90095 22.4847 8.80292 22.4467 8.71152C22.4086 8.62013 22.3528 8.53718 22.2825 8.46745V8.46745ZM14.6925 15H13.5V13.8075L17.25 10.0575L18.4425 11.25L14.6925 15ZM19.5 10.1925L18.3075 8.99995L19.5 7.80745L20.6925 8.99995L19.5 10.1925Z" fill="#CA583E"/>
</svg>

<svg width="24" height="24" fill="none" xmlns="http://www.w3.org/2000/svg"><path d="M19.5 4.5H3v2.378l5.557 5.565.443.434V19.5h3V18h1.5v1.5A1.5 1.5 0 0112 21H9a1.5 1.5 0 01-1.5-1.5v-6L1.942 7.942A1.5 1.5 0 011.5 6.878V4.5A1.5 1.5 0 013 3h16.5v1.5z" fill="#CA583E"/><path d="M22.282 8.467l-2.25-2.25a.75.75 0 00-1.064 0L12 13.193V16.5h3.307l6.975-6.968a.75.75 0 000-1.065zM14.692 15H13.5v-1.193l3.75-3.75 1.192 1.193-3.75 3.75zm4.808-4.807L18.308 9 19.5 7.807 20.692 9 19.5 10.193z" fill="#CA583E"/></svg>
